resources/haticons/SVG/luggage.svg

<!-- Generated by IcoMoon.io -->
<svg version="1.1" xmlns="http://www.w3.org/2000/svg" width="24" height="24" viewBox="0 0 24 24">
<title>luggage</title>
<path d="M17.016 6h-2.016v-3q0-0.422-0.305-0.703t-0.68-0.281h-4.031q-0.375 0-0.68 0.281t-0.305 0.703v3h-2.016q-0.797 0-1.383 0.586t-0.586 1.43v10.969q0 0.844 0.586 1.43t1.383 0.586q0 0.422 0.305 0.703t0.727 0.281q0.375 0 0.68-0.281t0.305-0.703h6q0 0.422 0.305 0.703t0.68 0.281q0.422 0 0.727-0.281t0.305-0.703q0.797 0 1.383-0.586t0.586-1.43v-10.969q0-0.844-0.586-1.43t-1.383-0.586zM9.516 18h-1.5v-9h1.5v9zM12.75 18h-1.5v-9h1.5v9zM13.5 6h-3v-2.484h3v2.484zM15.984 18h-1.5v-9h1.5v9z"></path>
</svg>

<svg xmlns="http://www.w3.org/2000/svg" width="24" height="24"><path d="M17.016 6H15V3q0-.422-.305-.703t-.68-.281H9.984q-.375 0-.68.281T8.999 3v3H6.983q-.797 0-1.383.586t-.586 1.43v10.969q0 .844.586 1.43t1.383.586q0 .422.305.703t.727.281q.375 0 .68-.281T9 21.001h6q0 .422.305.703t.68.281q.422 0 .727-.281t.305-.703q.797 0 1.383-.586t.586-1.43V8.016q0-.844-.586-1.43T17.017 6zm-7.5 12h-1.5V9h1.5v9zm3.234 0h-1.5V9h1.5v9zm.75-12h-3V3.516h3V6zm2.484 12h-1.5V9h1.5v9z"/></svg>
